X: 100
T: A Birthday
R: polka
M: 2/4
K: Gmajor
[DG]g eg/e/|dB GF/E/|DF Ac|BG GD-|
Dg eg/e/|dB GF/E/|DF AB/A/|G4||
g2 fe|dB GF/E/|DF Ac|BG GD-|
Dg eg/e/|dB GF/E/|DF AB/A/|G4||
A3d|BG GB|Ad cA|BG GB|
A3d|BG GB|de/d/ cA|1 BG GB:|2 AG GD-||

